app/assets/images/niveaupreX1-blanc.svg

<svg width="20" height="20" viewBox="0 0 20 20" fill="none" xmlns="http://www.w3.org/2000/svg">
<path d="M6.6035 3.91685C6.65683 3.91685 6.70016 3.93463 6.7335 3.97018C6.76683 4.00574 6.7835 4.05018 6.7835 4.10352V6.04685C6.7835 6.10463 6.7635 6.15352 6.7235 6.19352C6.68572 6.23129 6.63794 6.25018 6.58016 6.25018C6.54905 6.25018 6.51794 6.24574 6.48683 6.23685C6.45794 6.22574 6.43683 6.21129 6.4235 6.19352L5.20016 4.64018V6.06352C5.20016 6.11685 5.18238 6.16129 5.14683 6.19685C5.1135 6.2324 5.06905 6.25018 5.0135 6.25018C4.96016 6.25018 4.91683 6.2324 4.8835 6.19685C4.85016 6.16129 4.8335 6.11685 4.8335 6.06352V4.12018C4.8335 4.0624 4.85238 4.01463 4.89016 3.97685C4.93016 3.93685 4.97905 3.91685 5.03683 3.91685C5.07016 3.91685 5.10239 3.92352 5.1335 3.93685C5.16683 3.95018 5.19127 3.96796 5.20683 3.99018L6.42016 5.53685V4.10352C6.42016 4.05018 6.43683 4.00574 6.47016 3.97018C6.50572 3.93463 6.55016 3.91685 6.6035 3.91685Z" fill="#FBF9FA"/>
<path d="M7.628 6.04685C7.628 6.10463 7.60911 6.15352 7.57133 6.19352C7.53356 6.23129 7.48578 6.25018 7.428 6.25018C7.37022 6.25018 7.32245 6.23129 7.28467 6.19352C7.24689 6.15352 7.228 6.10463 7.228 6.04685V4.67018C7.228 4.6124 7.24689 4.56463 7.28467 4.52685C7.32245 4.48685 7.37022 4.46685 7.428 4.46685C7.48578 4.46685 7.53356 4.48685 7.57133 4.52685C7.60911 4.56463 7.628 4.6124 7.628 4.67018V6.04685ZM7.42467 4.25018C7.34911 4.25018 7.29578 4.23796 7.26467 4.21352C7.23356 4.18907 7.218 4.14574 7.218 4.08352V4.02018C7.218 3.95796 7.23467 3.91463 7.268 3.89018C7.30133 3.86574 7.35467 3.85352 7.428 3.85352C7.50578 3.85352 7.56022 3.86574 7.59133 3.89018C7.62245 3.91463 7.638 3.95796 7.638 4.02018V4.08352C7.638 4.14796 7.62133 4.1924 7.588 4.21685C7.55689 4.23907 7.50245 4.25018 7.42467 4.25018Z" fill="#FBF9FA"/>
<path d="M9.4091 4.47018C9.46243 4.47018 9.50687 4.48796 9.54243 4.52352C9.57798 4.55685 9.59576 4.59907 9.59576 4.65018C9.59576 4.67685 9.58687 4.71018 9.5691 4.75018L8.94576 6.12352C8.93021 6.16129 8.90687 6.19129 8.87576 6.21352C8.84687 6.23574 8.81354 6.24796 8.77576 6.25018L8.74576 6.25352C8.70798 6.25352 8.67243 6.2424 8.6391 6.22018C8.60798 6.19574 8.58354 6.16352 8.56576 6.12352L7.94576 4.75018C7.93021 4.71463 7.92243 4.67907 7.92243 4.64352C7.92243 4.59907 7.94132 4.55907 7.9791 4.52352C8.01687 4.48574 8.06354 4.46685 8.1191 4.46685C8.16132 4.46685 8.20021 4.47796 8.23576 4.50018C8.27132 4.5224 8.29798 4.55352 8.31576 4.59352L8.77576 5.64685L9.23243 4.59685C9.25021 4.55463 9.27465 4.5224 9.30576 4.50018C9.33687 4.47796 9.37132 4.46796 9.4091 4.47018Z" fill="#FBF9FA"/>
<path d="M11.4946 5.31685C11.4923 5.37018 11.4712 5.41352 11.4312 5.44685C11.3912 5.48018 11.3446 5.49685 11.2912 5.49685H10.1912C10.2179 5.62796 10.279 5.73129 10.3746 5.80685C10.4701 5.88018 10.5779 5.91685 10.6979 5.91685C10.789 5.91685 10.8601 5.90907 10.9112 5.89352C10.9623 5.87574 11.0023 5.85796 11.0312 5.84018C11.0623 5.82018 11.0835 5.80685 11.0946 5.80018C11.1346 5.78018 11.1723 5.77018 11.2079 5.77018C11.2546 5.77018 11.2946 5.78685 11.3279 5.82018C11.3612 5.85352 11.3779 5.8924 11.3779 5.93685C11.3779 5.99685 11.3468 6.05129 11.2846 6.10018C11.2223 6.15129 11.139 6.19463 11.0346 6.23018C10.9301 6.26574 10.8246 6.28352 10.7179 6.28352C10.5312 6.28352 10.3679 6.24463 10.2279 6.16685C10.0901 6.08907 9.98345 5.9824 9.9079 5.84685C9.83234 5.70907 9.79456 5.55463 9.79456 5.38352C9.79456 5.1924 9.83456 5.02463 9.91456 4.88018C9.99456 4.73574 10.1001 4.62574 10.2312 4.55018C10.3623 4.4724 10.5023 4.43352 10.6512 4.43352C10.7979 4.43352 10.9357 4.47352 11.0646 4.55352C11.1957 4.63352 11.3001 4.74129 11.3779 4.87685C11.4557 5.0124 11.4946 5.15907 11.4946 5.31685ZM10.6512 4.80018C10.3935 4.80018 10.2412 4.92129 10.1946 5.16352H11.0679V5.14018C11.059 5.04685 11.0135 4.96685 10.9312 4.90018C10.849 4.83352 10.7557 4.80018 10.6512 4.80018Z" fill="#FBF9FA"/>
<path d="M13.2845 4.43352C13.3423 4.43352 13.3901 4.4524 13.4278 4.49018C13.4656 4.52796 13.4845 4.57685 13.4845 4.63685V6.04685C13.4845 6.10463 13.4656 6.15352 13.4278 6.19352C13.3901 6.23129 13.3423 6.25018 13.2845 6.25018C13.2267 6.25018 13.179 6.23129 13.1412 6.19352C13.1056 6.15574 13.0867 6.10796 13.0845 6.05018C13.029 6.11463 12.9534 6.17018 12.8578 6.21685C12.7645 6.26129 12.6656 6.28352 12.5612 6.28352C12.4078 6.28352 12.269 6.24463 12.1445 6.16685C12.0201 6.08685 11.9212 5.97685 11.8478 5.83685C11.7767 5.69685 11.7412 5.53796 11.7412 5.36018C11.7412 5.1824 11.7767 5.02352 11.8478 4.88352C11.919 4.74129 12.0156 4.63129 12.1378 4.55352C12.2623 4.47352 12.399 4.43352 12.5478 4.43352C12.6545 4.43352 12.7545 4.45352 12.8478 4.49352C12.9412 4.53129 13.0201 4.58018 13.0845 4.64018V4.63685C13.0845 4.57907 13.1034 4.53129 13.1412 4.49352C13.179 4.45352 13.2267 4.43352 13.2845 4.43352ZM12.6112 5.91685C12.7556 5.91685 12.8734 5.86463 12.9645 5.76018C13.0556 5.65352 13.1012 5.52018 13.1012 5.36018C13.1012 5.20018 13.0556 5.06685 12.9645 4.96018C12.8734 4.85352 12.7556 4.80018 12.6112 4.80018C12.469 4.80018 12.3523 4.85352 12.2612 4.96018C12.1701 5.06685 12.1245 5.20018 12.1245 5.36018C12.1245 5.52018 12.169 5.65352 12.2578 5.76018C12.349 5.86463 12.4667 5.91685 12.6112 5.91685Z" fill="#FBF9FA"/>
<path d="M15.2088 4.46685C15.2666 4.46685 15.3143 4.48685 15.3521 4.52685C15.3899 4.56463 15.4088 4.6124 15.4088 4.67018V5.51685C15.4088 5.75685 15.3421 5.94463 15.2088 6.08018C15.0777 6.21574 14.8899 6.28352 14.6454 6.28352C14.401 6.28352 14.2132 6.21574 14.0821 6.08018C13.951 5.94463 13.8854 5.75685 13.8854 5.51685V4.67018C13.8854 4.6124 13.9043 4.56463 13.9421 4.52685C13.9799 4.48685 14.0277 4.46685 14.0854 4.46685C14.1432 4.46685 14.191 4.48685 14.2288 4.52685C14.2666 4.56463 14.2854 4.6124 14.2854 4.67018V5.51685C14.2854 5.6524 14.3154 5.75352 14.3754 5.82018C14.4354 5.88463 14.5254 5.91685 14.6454 5.91685C14.7677 5.91685 14.8588 5.88463 14.9188 5.82018C14.9788 5.75352 15.0088 5.6524 15.0088 5.51685V4.67018C15.0088 4.6124 15.0277 4.56463 15.0654 4.52685C15.1032 4.48685 15.151 4.46685 15.2088 4.46685Z" fill="#FBF9FA"/>
<path d="M3.64013 10.6832C3.79346 10.6832 3.93235 10.7232 4.0568 10.8032C4.18124 10.881 4.27902 10.9899 4.35013 11.1299C4.42346 11.2699 4.46013 11.4288 4.46013 11.6065C4.46013 11.7843 4.42457 11.9443 4.35346 12.0865C4.28235 12.2265 4.18457 12.3365 4.06013 12.4165C3.93791 12.4943 3.80235 12.5332 3.65346 12.5332C3.5468 12.5332 3.44569 12.5121 3.35013 12.4699C3.2568 12.4254 3.17902 12.3721 3.1168 12.3099V12.9632C3.1168 13.021 3.09791 13.0688 3.06013 13.1065C3.02235 13.1465 2.97457 13.1665 2.9168 13.1665C2.85902 13.1665 2.81124 13.1477 2.77346 13.1099C2.73569 13.0721 2.7168 13.0232 2.7168 12.9632V10.9199C2.7168 10.8621 2.73569 10.8143 2.77346 10.7765C2.81124 10.7365 2.85902 10.7165 2.9168 10.7165C2.97457 10.7165 3.02235 10.7365 3.06013 10.7765C3.09791 10.8143 3.1168 10.8621 3.1168 10.9199V10.9332C3.17013 10.8665 3.24457 10.8088 3.34013 10.7599C3.43569 10.7088 3.53569 10.6832 3.64013 10.6832ZM3.59013 12.1665C3.73235 12.1665 3.84902 12.1132 3.94013 12.0065C4.03124 11.8999 4.0768 11.7665 4.0768 11.6065C4.0768 11.4465 4.03124 11.3143 3.94013 11.2099C3.85124 11.1032 3.73457 11.0499 3.59013 11.0499C3.44569 11.0499 3.32791 11.1032 3.2368 11.2099C3.14569 11.3143 3.10013 11.4465 3.10013 11.6065C3.10013 11.7665 3.14569 11.8999 3.2368 12.0065C3.32791 12.1132 3.44569 12.1665 3.59013 12.1665Z" fill="#FBF9FA"/>
<path d="M5.72029 10.6832C5.78695 10.6832 5.84251 10.7021 5.88695 10.7399C5.93362 10.7777 5.95695 10.8221 5.95695 10.8732C5.95695 10.9421 5.93918 10.9943 5.90362 11.0299C5.86806 11.0632 5.82584 11.0799 5.77695 11.0799C5.74362 11.0799 5.70584 11.0721 5.66362 11.0565C5.65695 11.0543 5.6414 11.0499 5.61695 11.0432C5.59473 11.0365 5.57029 11.0332 5.54362 11.0332C5.48584 11.0332 5.43029 11.051 5.37695 11.0865C5.32362 11.1221 5.27918 11.1765 5.24362 11.2499C5.21029 11.321 5.19362 11.4065 5.19362 11.5065V12.2965C5.19362 12.3543 5.17473 12.4032 5.13695 12.4432C5.09918 12.481 5.0514 12.4999 4.99362 12.4999C4.93584 12.4999 4.88806 12.481 4.85029 12.4432C4.81251 12.4032 4.79362 12.3543 4.79362 12.2965V10.9199C4.79362 10.8621 4.81251 10.8143 4.85029 10.7765C4.88806 10.7365 4.93584 10.7165 4.99362 10.7165C5.0514 10.7165 5.09918 10.7365 5.13695 10.7765C5.17473 10.8143 5.19362 10.8621 5.19362 10.9199V10.9632C5.24473 10.8721 5.31806 10.8032 5.41362 10.7565C5.50918 10.7077 5.6114 10.6832 5.72029 10.6832Z" fill="#FBF9FA"/>
<path d="M7.76406 11.5665C7.76184 11.6199 7.74073 11.6632 7.70073 11.6965C7.66073 11.7299 7.61406 11.7465 7.56073 11.7465H6.46073C6.4874 11.8777 6.54851 11.981 6.64406 12.0565C6.73962 12.1299 6.8474 12.1665 6.9674 12.1665C7.05851 12.1665 7.12962 12.1588 7.18073 12.1432C7.23184 12.1254 7.27184 12.1077 7.30073 12.0899C7.33184 12.0699 7.35295 12.0565 7.36406 12.0499C7.40406 12.0299 7.44184 12.0199 7.4774 12.0199C7.52406 12.0199 7.56406 12.0365 7.5974 12.0699C7.63073 12.1032 7.6474 12.1421 7.6474 12.1865C7.6474 12.2465 7.61628 12.301 7.55406 12.3499C7.49184 12.401 7.40851 12.4443 7.30406 12.4799C7.19962 12.5154 7.09406 12.5332 6.9874 12.5332C6.80073 12.5332 6.6374 12.4943 6.4974 12.4165C6.35962 12.3388 6.25295 12.2321 6.1774 12.0965C6.10184 11.9588 6.06406 11.8043 6.06406 11.6332C6.06406 11.4421 6.10406 11.2743 6.18406 11.1299C6.26406 10.9854 6.36962 10.8754 6.50073 10.7999C6.63184 10.7221 6.77184 10.6832 6.92073 10.6832C7.0674 10.6832 7.20517 10.7232 7.33406 10.8032C7.46517 10.8832 7.56962 10.991 7.6474 11.1265C7.72517 11.2621 7.76406 11.4088 7.76406 11.5665ZM6.92073 11.0499C6.66295 11.0499 6.51073 11.171 6.46406 11.4132H7.3374V11.3899C7.32851 11.2965 7.28295 11.2165 7.20073 11.1499C7.11851 11.0832 7.02517 11.0499 6.92073 11.0499ZM6.92406 10.6032C6.90184 10.6032 6.8774 10.5932 6.85073 10.5732C6.82628 10.5532 6.81517 10.5265 6.8174 10.4932C6.8174 10.4732 6.82406 10.4521 6.8374 10.4299L7.03073 10.0899C7.05295 10.0499 7.07962 10.0177 7.11073 9.99321C7.14184 9.96877 7.17628 9.95654 7.21406 9.95654C7.27406 9.95654 7.31851 9.9721 7.3474 10.0032C7.37851 10.0343 7.39295 10.0743 7.39073 10.1232C7.38628 10.1743 7.36517 10.2221 7.3274 10.2665L7.07406 10.5465C7.03851 10.5843 6.98851 10.6032 6.92406 10.6032Z" fill="#FBF9FA"/>
<path d="M8.25099 11.6765C8.19321 11.6765 8.14432 11.6577 8.10432 11.6199C8.06655 11.5821 8.04766 11.5343 8.04766 11.4765C8.04766 11.421 8.06655 11.3743 8.10432 11.3365C8.14432 11.2988 8.19321 11.2799 8.25099 11.2799H8.83099C8.88877 11.2799 8.93655 11.2999 8.97432 11.3399C9.01432 11.3777 9.03432 11.4254 9.03432 11.4832C9.03432 11.5388 9.01432 11.5854 8.97432 11.6232C8.93655 11.6588 8.88877 11.6765 8.83099 11.6765H8.25099Z" fill="#FBF9FA"/>
<path fill-rule="evenodd" clip-rule="evenodd" d="M10 18.75C14.8325 18.75 18.75 14.8325 18.75 10C18.75 5.16751 14.8325 1.25 10 1.25C5.16751 1.25 1.25 5.16751 1.25 10C1.25 14.8325 5.16751 18.75 10 18.75ZM10 20C15.5228 20 20 15.5228 20 10C20 4.47715 15.5228 0 10 0C4.47715 0 0 4.47715 0 10C0 15.5228 4.47715 20 10 20Z" fill="#FBF9FA"/>
<path d="M13.5571 13.7784C13.6271 13.8717 13.6621 13.9796 13.6621 14.1021C13.6621 14.2538 13.6066 14.3792 13.4958 14.4784C13.385 14.5775 13.2654 14.6271 13.1371 14.6271C12.9679 14.6271 12.825 14.5513 12.7083 14.3996L11.1508 12.3259L9.63705 14.3821C9.52038 14.5455 9.37455 14.6271 9.19955 14.6271C9.07122 14.6271 8.96038 14.5805 8.86705 14.4871C8.77372 14.3938 8.72705 14.2859 8.72705 14.1634C8.72705 14.035 8.7708 13.9155 8.8583 13.8046L10.5471 11.5209L8.8583 9.28088C8.78247 9.18755 8.74455 9.08255 8.74455 8.96588C8.74455 8.82005 8.79997 8.69463 8.9108 8.58963C9.02163 8.48463 9.14413 8.43213 9.2783 8.43213C9.44747 8.43213 9.59038 8.50796 9.70705 8.65963L11.2471 10.7071L12.7521 8.70338C12.8104 8.62171 12.8775 8.56046 12.9533 8.51963C13.0291 8.47296 13.105 8.44963 13.1808 8.44963C13.3091 8.44963 13.4229 8.50213 13.5221 8.60713C13.6212 8.7063 13.6708 8.81713 13.6708 8.93963C13.6708 9.05046 13.6329 9.15546 13.5571 9.25463L11.8508 11.5034L13.5571 13.7784Z" fill="#FBF9FA"/>
<path d="M16.0794 8.45838C16.2253 8.45838 16.3478 8.51088 16.4469 8.61588C16.5461 8.71505 16.5957 8.84046 16.5957 8.99213V14.0496C16.5957 14.2013 16.5403 14.3296 16.4294 14.4346C16.3186 14.5338 16.1815 14.5834 16.0182 14.5834C15.8549 14.5834 15.7207 14.5338 15.6157 14.4346C15.5107 14.3296 15.4582 14.2013 15.4582 14.0496V9.90213L14.9157 10.2346C14.8282 10.2871 14.7349 10.3134 14.6357 10.3134C14.4899 10.3134 14.3644 10.258 14.2594 10.1471C14.1603 10.0363 14.1107 9.9138 14.1107 9.77963C14.1107 9.6863 14.134 9.5988 14.1807 9.51713C14.2332 9.43546 14.3003 9.3713 14.3819 9.32463L15.7032 8.53713C15.8024 8.48463 15.9278 8.45838 16.0794 8.45838Z" fill="#FBF9FA"/>
</svg>

<svg width="20" height="20" fill="none" xmlns="http://www.w3.org/2000/svg"><path d="M6.604 3.917a.17.17 0 01.13.053c.033.036.05.08.05.134v1.943a.2.2 0 01-.204.203.338.338 0 01-.093-.013.14.14 0 01-.064-.043L5.2 4.64v1.424a.18.18 0 01-.053.133.174.174 0 01-.134.053.17.17 0 01-.13-.053.187.187 0 01-.05-.133V4.12a.2.2 0 01.203-.203c.034 0 .066.007.098.02a.158.158 0 01.073.053L6.42 5.537V4.104c0-.054.017-.098.05-.134a.18.18 0 01.134-.053zM7.628 6.047a.206.206 0 01-.057.147.194.194 0 01-.143.056.194.194 0 01-.143-.056.206.206 0 01-.057-.147V4.67c0-.058.019-.105.057-.143a.189.189 0 01.143-.06c.058 0 .106.02.143.06a.194.194 0 01.057.143v1.377zM7.425 4.25c-.076 0-.13-.012-.16-.036-.031-.025-.047-.068-.047-.13V4.02c0-.062.017-.105.05-.13.033-.024.087-.036.16-.036.078 0 .132.012.163.036.031.025.047.068.047.13v.064c0 .064-.017.108-.05.133-.031.022-.086.033-.163.033zM9.41 4.47a.18.18 0 01.132.054.166.166 0 01.054.126c0 .027-.01.06-.027.1l-.623 1.374a.203.203 0 01-.17.126l-.03.004a.189.189 0 01-.107-.034.249.249 0 01-.073-.096l-.62-1.374a.264.264 0 01-.024-.106c0-.045.02-.085.057-.12a.19.19 0 01.14-.057c.042 0 .081.011.117.033a.206.206 0 01.08.094l.46 1.053.456-1.05a.22.22 0 01.074-.097.157.157 0 01.103-.03zM11.495 5.317a.171.171 0 01-.064.13.212.212 0 01-.14.05h-1.1a.51.51 0 00.507.42.765.765 0 00.213-.023.63.63 0 00.184-.094c.04-.02.077-.03.113-.03.047 0 .087.017.12.05a.16.16 0 01.05.117c0 .06-.031.114-.093.163a.977.977 0 01-.567.183.993.993 0 01-.49-.116.82.82 0 01-.32-.32.947.947 0 01-.113-.463c0-.192.04-.36.12-.504a.84.84 0 01.736-.446.77.77 0 01.414.12.893.893 0 01.43.763zM10.65 4.8c-.258 0-.41.121-.456.364h.873V5.14a.344.344 0 00-.137-.24.432.432 0 00-.28-.1zM13.284 4.434a.194.194 0 01.2.203v1.41a.206.206 0 01-.056.147.194.194 0 01-.144.056.194.194 0 01-.143-.056.213.213 0 01-.056-.144.698.698 0 01-.227.167.681.681 0 01-.297.067.77.77 0 01-.416-.117.856.856 0 01-.297-.33 1.038 1.038 0 01-.107-.477c0-.178.036-.336.107-.476a.81.81 0 01.29-.33.743.743 0 01.41-.12c.107 0 .207.02.3.06a.762.762 0 01.236.146v-.003c0-.058.02-.106.057-.143a.189.189 0 01.143-.06zm-.673 1.483a.447.447 0 00.353-.157.594.594 0 00.137-.4.594.594 0 00-.137-.4.443.443 0 00-.353-.16.44.44 0 00-.35.16.594.594 0 00-.136.4c0 .16.044.294.133.4a.447.447 0 00.353.157zM15.209 4.467c.058 0 .105.02.143.06a.194.194 0 01.057.143v.847c0 .24-.067.428-.2.563-.131.136-.32.204-.564.204-.244 0-.432-.068-.563-.204-.131-.135-.197-.323-.197-.563V4.67c0-.058.02-.105.057-.143a.189.189 0 01.143-.06c.058 0 .106.02.144.06a.194.194 0 01.056.143v.847c0 .135.03.237.09.303.06.065.15.097.27.097.123 0 .214-.032.274-.097.06-.066.09-.168.09-.303V4.67c0-.058.019-.105.056-.143a.189.189 0 01.144-.06zM3.64 10.683c.153 0 .292.04.417.12a.806.806 0 01.293.327c.073.14.11.299.11.476 0 .178-.035.338-.107.48a.83.83 0 01-.293.33.742.742 0 01-.407.117.743.743 0 01-.536-.223v.653a.194.194 0 01-.057.144.189.189 0 01-.143.06.194.194 0 01-.2-.204V10.92c0-.058.019-.106.056-.143a.189.189 0 01.144-.06c.058 0 .105.02.143.06a.194.194 0 01.057.143v.013a.672.672 0 01.223-.173.628.628 0 01.3-.077zm-.05 1.483a.44.44 0 00.35-.16.594.594 0 00.137-.4.581.581 0 00-.137-.396.433.433 0 00-.35-.16.443.443 0 00-.353.16.581.581 0 00-.137.396c0 .16.046.294.137.4.09.107.209.16.353.16zM5.72 10.683c.067 0 .123.02.167.057.047.038.07.082.07.133 0 .07-.018.121-.053.157a.18.18 0 01-.127.05.332.332 0 01-.113-.024 1.324 1.324 0 00-.047-.013.253.253 0 00-.073-.01.297.297 0 00-.167.053.4.4 0 00-.133.164.6.6 0 00-.05.257v.79a.206.206 0 01-.057.146.194.194 0 01-.143.057.194.194 0 01-.144-.057.206.206 0 01-.056-.146V10.92c0-.058.019-.106.056-.143a.189.189 0 01.144-.06c.057 0 .105.02.143.06a.194.194 0 01.057.143v.043a.495.495 0 01.22-.206.665.665 0 01.306-.074zM7.764 11.566a.171.171 0 01-.063.13.212.212 0 01-.14.05h-1.1a.51.51 0 00.506.42.763.763 0 00.214-.023.63.63 0 00.183-.093c.04-.02.078-.03.113-.03.047 0 .087.017.12.05a.16.16 0 01.05.117c0 .06-.03.114-.093.163a.978.978 0 01-.567.183.992.992 0 01-.49-.117.82.82 0 01-.32-.32.947.947 0 01-.113-.463c0-.19.04-.359.12-.503a.84.84 0 01.737-.447.77.77 0 01.413.12.893.893 0 01.43.763zm-.843-.516c-.258 0-.41.121-.457.363h.873v-.023a.344.344 0 00-.136-.24.432.432 0 00-.28-.1zm.003-.447a.126.126 0 01-.073-.03.09.09 0 01-.034-.08c0-.02.007-.04.02-.063l.194-.34a.316.316 0 01.08-.097.163.163 0 01.103-.036c.06 0 .105.015.133.046a.152.152 0 01.044.12.252.252 0 01-.064.144l-.253.28a.196.196 0 01-.15.056zM8.251 11.677a.206.206 0 01-.147-.057.194.194 0 01-.056-.143.19.19 0 01.056-.14.206.206 0 01.147-.057h.58c.058 0 .106.02.143.06.04.038.06.085.06.143 0 .056-.02.102-.06.14a.2.2 0 01-.143.054h-.58z" fill="#FBF9FA"/><path fill-rule="evenodd" clip-rule="evenodd" d="M10 18.75a8.75 8.75 0 100-17.5 8.75 8.75 0 000 17.5zM10 20c5.523 0 10-4.477 10-10S15.523 0 10 0 0 4.477 0 10s4.477 10 10 10z" fill="#FBF9FA"/><path d="M13.557 13.778c.07.094.105.202.105.324a.483.483 0 01-.166.376.53.53 0 01-.359.15.524.524 0 01-.429-.228l-1.557-2.074-1.514 2.056c-.117.164-.262.245-.437.245a.454.454 0 01-.333-.14.444.444 0 01-.14-.324c0-.128.044-.248.131-.358l1.69-2.284-1.69-2.24a.5.5 0 01.053-.691.523.523 0 01.367-.158c.17 0 .312.076.43.228l1.54 2.047 1.504-2.004a.597.597 0 01.201-.183.431.431 0 01.228-.07c.128 0 .242.052.341.157.1.1.149.21.149.333a.51.51 0 01-.114.315l-1.706 2.248 1.706 2.275zM16.08 8.458c.145 0 .268.053.367.158.1.1.149.224.149.376v5.058a.51.51 0 01-.167.385.594.594 0 01-.41.148.563.563 0 01-.403-.148.524.524 0 01-.158-.385V9.902l-.542.333a.535.535 0 01-.28.078.5.5 0 01-.377-.166.539.539 0 01-.148-.367.52.52 0 01.07-.263.578.578 0 01.2-.192l1.322-.788a.8.8 0 01.376-.079z" fill="#FBF9FA"/></svg>
